!!!!SEGMENT: pl-wnifc--13846--104_anonim--piesni-polskie-i-ruskie-ludu-galicyjskiego-104-jedna-hora-wysokaja.krn
!!!cenid: 18xx:3326
!!!COM: Anonim
!!!COM-rismid: pe30004985
!!!CDT:
!!!CNT:
!!!GTL: Pieśni polskie i ruskie ludu galicyjskiego
!!!OTL: 104. Jedna hora wysokaja
!!!PDT: 1833
!!!AGN:
!!!SMS-siglum: PL-Wnifc
!!!SMS-shelfmark: 13846
!!!SMS-shelfwork: 104 G
!!!NIFC-rismid: 1001039219
!!!URL-scan: http://repozytorium.nifc.pl/skany/pl-wnifc-nut--13846
!!!ONB-nifc:
!!!key: g
**kern	**kern	**kern	**text
*group2	*group2	*group1	*
*part2	*part2	*part1	*part1
*staff3	*staff2	*staff1	*staff1
*I"[Piano]	*I"[Piano]	*I"[Soprano]	*
*Ipiano	*Ipiano	*Isoprn	*
*ICklav	*ICklav	*ICvox	*
*IGacmp	*IGacmp	*IGsolo	*
*clefF4	*clefG2	*clefG2	*
*k[b-e-]	*k[b-e-]	*k[b-e-]	*
*g:	*g:	*g:	*
*M2/4	*M2/4	*M2/4	*
=1-	=1-	=1-	=1-
!	!	!LO:TX:b:B:rj:t=E.122.	!
8GG/L 8D/ 8G/	(>\16gLL	(</16gLL	Je-
.	16a\)	16a/JJ)	.
8GG/ 8D/ 8G/	(>\16b-	(>\16b-LL	-dna
.	16cc\JJ)	16cc\JJ)	.
!	!LO:TX:b:t=|:problem	!	!
8GG/ 8D/ 8F#X/	8d/L 8g/ 8dd/	8dd\	ho-
!	!LO:TX:b:t=|:problem	!	!
8GG/J 8D/ 8F#/	8d/J 8a/ 8dd/	8dd\	-ra
=2	=2	=2	=2
!	!LO:TX:b:t=|:problem	!	!
8GG/L 8D/ 8G/	8.g/L 8.b-/ 8.gg/	8.gg\	wy-
8GG/J 8D/ 8G/	.	.	.
!	!LO:TX:b:t=|:problem	!	!
.	16g/Jk 16dd/	16dd\	-so-
!	!LO:TX:b:t=|:problem	!	!
8GG/L 8D/ 8F#X/	8d/L 8a/ 8dd/	8dd\	-ka-
!	!LO:TX:b:t=|:problem	!	!
8GG/J 8D/ 8F#/	8d/J 8a/ 8cc/	8cc\	-ja,
!!LO:LB:g=original
=3	=3	=3	=3
!	!LO:TX:b:t=|:problem	!	!
8GG/L 8D/ 8G/	8d/L 8b-/	8b-\	a
!	!LO:TX:b:t=|:problem	!	!
8GG/ 8D/ 8G/	8d/ 8b-/	8b-\	dru-
.	16qcc\LL	.	.
.	16qb-\JJ	.	.
8GG^>/ 8D/ 8G/	8.c/ 8.a/	8.a/	-ha-
8GG/J 8D/ 8G/	.	.	.
!	!LO:TX:a:t=8f#A	!	!
.	16A/Jk 16f#X/	16f#X/	-ja
=4	=4	=4	=4
8GG/L 8D/ 8G/	4B-/ 4g/	4g/	nys-
8GG/ 8D/ 8G/	.	.	.
8GG/ 8D/ 8G/	4d/	4d/	-ka,
8GG/J 8D/ 8G/	.	.	.
!!LO:LB:g=original
=5	=5	=5	=5
8GG/L 8D/ 8G/	(</16gLL	(</16gLL	je-
.	16a/)	16a/JJ)	.
8GG/ 8D/ 8G/	(</16b-	(>\16b-LL	-dna
.	16cc/JJ)	16cc\JJ)	.
8GG/ 8D/ 8F#X/	8d/L 8g/ 8dd/	8dd\	my-
8GG/J 8D/ 8F#/	8d/J 8a/ 8dd/	8dd\	-ła
=6	=6	=6	=6
8GG/L 8D/ 8G/	8.g/L 8.b-/ 8.gg/	8.gg\	da-
8GG/J 8D/ 8G/	.	.	.
.	16g/Jk 16dd/	16dd\	-łe-
8GG/L 8D/ 8F#X/	8d/L 8a/ 8dd/	8dd\	-ka-
8GG/J 8D/ 8F#/	8d/J 8a/ 8cc/	8cc\	-ja
!!LO:LB:g=original
=7	=7	=7	=7
8GG/L 8D/ 8G/	8d/L 8b-/	8b-/	a
8GG/ 8D/ 8G/	8d/ 8b-/	8b-/	dru-
.	16qcc\LL	.	.
.	16qb-\JJ	.	.
8GG/ 8D/ 8G/	8.c/ 8.a/	8.a/	-ha-
8GG/J 8D/ 8G/	.	.	.
.	16A/Jk 16f#X/	16f#X/	-ja
=8	=8	=8	=8
8GG/L 8D/ 8G/	4B-/ 4g/	4g/	bły-
8GG/ 8D/ 8G/	.	.	.
8GG/ 8D/ 8G/	8B-/ 8g/	8g/	-ska.
8GG/J 8D/ 8G/	8r	8r	.
==	==	==	==
*-	*-	*-	*-
!!!system-decoration: g1,[{g2}]
!!!EED: Jędrzej Mróz
!!!ESR: 2021-11-11
!!!RDF**kern: > = above
!!!RDF**kern: < = below
